www/assets/icons/package_2_outline.svg

<svg width="24" height="24" viewBox="0 0 24 24" xmlns="http://www.w3.org/2000/svg" fill='currentColor'><mask id="mask0_32484_499" style="mask-type:alpha" maskUnits="userSpaceOnUse" x="0" y="0" width="24" height="24"><rect width="24" height="24"/></mask><g mask="url(#mask0_32484_499)"><path d="M11 19.425V12.575L5 9.1V15.95L11 19.425ZM13 19.425L19 15.95V9.1L13 12.575V19.425ZM11 21.725L4 17.7C3.68333 17.5167 3.4375 17.275 3.2625 16.975C3.0875 16.675 3 16.3417 3 15.975V8.025C3 7.65833 3.0875 7.325 3.2625 7.025C3.4375 6.725 3.68333 6.48333 4 6.3L11 2.275C11.3167 2.09167 11.65 2 12 2C12.35 2 12.6833 2.09167 13 2.275L20 6.3C20.3167 6.48333 20.5625 6.725 20.7375 7.025C20.9125 7.325 21 7.65833 21 8.025V15.975C21 16.3417 20.9125 16.675 20.7375 16.975C20.5625 17.275 20.3167 17.5167 20 17.7L13 21.725C12.6833 21.9083 12.35 22 12 22C11.65 22 11.3167 21.9083 11 21.725ZM16 8.525L17.925 7.425L12 4L10.05 5.125L16 8.525ZM12 10.85L13.95 9.725L8.025 6.3L6.075 7.425L12 10.85Z"/></g></svg>

<svg xmlns="http://www.w3.org/2000/svg" width="24" height="24" viewBox="0 0 24 24" fill='currentColor'><mask id="a" width="24" height="24" x="0" y="0" maskUnits="userSpaceOnUse" style="mask-type:alpha"><path d="M0 0h24v24H0z"/></mask><g mask="url(#a)"><path d="M11 19.425v-6.85L5 9.1v6.85zm2 0 6-3.475V9.1l-6 3.475zm-2 2.3L4 17.7a1.95 1.95 0 0 1-1-1.725v-7.95A1.95 1.95 0 0 1 4 6.3l7-4.025Q11.475 2 12 2t1 .275L20 6.3q.475.275.738.725.262.45.262 1v7.95a1.95 1.95 0 0 1-1 1.725l-7 4.025Q12.525 22 12 22t-1-.275m5-13.2 1.925-1.1L12 4l-1.95 1.125zm-4 2.325 1.95-1.125L8.025 6.3l-1.95 1.125z"/></g></svg>
